src/images/svg/careers/flag._channel_islands.svg

<svg width="24" height="16" viewBox="0 0 24 16" fill="none" xmlns="http://www.w3.org/2000/svg">
<path d="M22 0H2C0.89543 0 0 0.89543 0 2V14C0 15.1046 0.89543 16 2 16H22C23.1046 16 24 15.1046 24 14V2C24 0.89543 23.1046 0 22 0Z" fill="white"/>
<path fill-rule="evenodd" clip-rule="evenodd" d="M22 1H2C1.44772 1 1 1.44772 1 2V14C1 14.5523 1.44772 15 2 15H22C22.5523 15 23 14.5523 23 14V2C23 1.44771 22.5523 1 22 1ZM2 0C0.895431 0 0 0.895431 0 2V14C0 15.1046 0.89543 16 2 16H22C23.1046 16 24 15.1046 24 14V2C24 0.895431 23.1046 0 22 0H2Z" fill="black" fill-opacity="0.04"/>
<path d="M15 0H9V5H0V11H9V16H15V11H24V5H15V0Z" fill="#E8112D"/>
<path d="M11.3333 1.33301V7.33333H5.33268L4.66602 6.66667V9.33333L5.33268 8.66667H11.3333V14.6657L10.6663 15.3327H13.333L12.6667 14.6663V8.66667H18.666L19.3327 9.33333V6.66667L18.666 7.33333H12.6667V1.33236L13.333 0.666016H10.6663L11.3333 1.33301Z" fill="#F9DD16"/>
</svg>

<svg width="24" height="16" fill="none" xmlns="http://www.w3.org/2000/svg"><path d="M22 0H2a2 2 0 0 0-2 2v12a2 2 0 0 0 2 2h20a2 2 0 0 0 2-2V2a2 2 0 0 0-2-2Z" fill="#fff"/><path fill-rule="evenodd" clip-rule="evenodd" d="M22 1H2a1 1 0 0 0-1 1v12a1 1 0 0 0 1 1h20a1 1 0 0 0 1-1V2a1 1 0 0 0-1-1ZM2 0a2 2 0 0 0-2 2v12a2 2 0 0 0 2 2h20a2 2 0 0 0 2-2V2a2 2 0 0 0-2-2H2Z" fill="#000" fill-opacity=".04"/><path d="M15 0H9v5H0v6h9v5h6v-5h9V5h-9V0Z" fill="#E8112D"/><path d="M11.333 1.333v6h-6l-.667-.666v2.666l.667-.666h6v5.999l-.667.667h2.667l-.666-.667v-6h5.999l.667.667V6.667l-.667.666h-6v-6l.667-.667h-2.667l.667.667Z" fill="#F9DD16"/></svg>
